X:1
T:Title
%%score [ 1 2 3 ]
L:1/8
Q:1/4=352
M:2/2
K:F
V:1 treble nm="MusicXML Part"
V:2 treble-8 nm="MusicXML Part"
V:3 bass nm="MusicXML Part"
V:1
 D16 | F12 E2 D2 | F4 G4 A8- | A4 G4 F4 E4 | G4 F4 D8 | ^C16- | C16 | z8 F8- | F8 E8 | D8 C8 | %10
w: I|love un- *|lov'd; * *|||||such|* is|mine ad-|
 B,16 | A,16 | z8 E8 | F4 G4 A8- | A4 F4 G6 A2 | F8 E4 E4 | F4 D4 F4 E4 | C8 D8 | A,8 z8 | %19
w: ven-|ture,||||||||
 z4 c4 B4 A4 | F4 G12 | A8 F8 | E12 D4 | C4 D4 E4 G4 | F4 E6 F2 D4 | C8 z4 C4 | D4 F8 E4 | %27
w: ||* And|can- not|cease till I sore||smart: *||
 A4 G2 A2 B2 A2 G2 F2 | E4 c4 B4 A4- | A4 G2 F2 A4 G4 | E8 z8 | A8 c8- | c8 B8 | A16 | G8 F4 F4 | %35
w: ||||But love|* my|foe,|that fer- vent-|
 A6 A2 D2 E2 F4 | G2 F2 E2 D2 C4 E4 | D4 F4 E4 D4 | C8 D8 | z4 F4 G4 B4- | B2 A2 c4 B4 A4 | %41
w: cre- a- ture * *||||||
 G8 A4 G2 F2 | E4 A4 G4 F2 E2 | G4 A4 G4 F4 | G4 E4 E8- | E16 || F8 E8 | D16 | C12 A,4 | %49
w: |||||Whose un-|kind-|ness *|
 C6 D2 C8- | C4 D4 E8 | F4 G4 A8 | G4 A4 F8 | E16 | z8 D8 | F8 B8 | A4 G4 G8- | G4 E4 ^F8 | G8 z8 | %59
w: |||||hath|kill'd my|heart; * *|||
 z16 | z16 | z16 | z4 D4 F4 G4 | A4 F4 B8 | A8 z8 | z4 D4 F6 E2 | D6 C2 B,4 A,4 | z4 F4 B6 AB | %68
w: |||||||||
 A2 G2 F2 E2 F4 G4 | F8 z4 D4- | D2 CD C2 B,2 A,2 G,2 A,4 | G,8 z8 | z8 z4 D4- | %73
w: |||||
 D2 D2 C2 B,2 A,2 G,2 A,4 | G,4 B6 AB A2 G2 | F2 E2 F4 G4 F4 | G4 A6 G2 F2 E2 | F4 G6 F2 E2 D2 | %78
w: |||||
 ^C4 D4 C8 | D16 || z8 D8 | F16 | E16 | D8 F8 | G8 A8- | A4 G4 F8- | F4 D4 E8 | F16 | z8 E8 | %89
w: ||From|her|love|no- thing|can me|||rent,|But|
 A12 G4 | F12 E2 D2 | C8 D8 | E8 C8 | D8 z8 | z8 z4 A4 | G6 F2 E2 D2 E4 | D6 E2 F4 G4 | %97
w: live in|pain * *|* while|I en-|dure||||
 A4 G6 F2 E4 | D4 C4 F8 | E16 | z8 C8 | F16 | D16 | E16 | D8 z4 D4 | F8 G4 G4 | A6 G2 F6 E2 | %107
w: |||And|love|un-|lov-|ed, such|is mine ad-|ven- * * *|
 D4 C4 B,8 | A,4 B,4 C8 | D8 z4 A4 | F4 G4 A8- | A4 G2 F2 E8 | z8 z4 D4 | B,4 C4 D4 F4- | %114
w: ||ture. *|||||
 F2 G2 A6 G2 F2 E2 | D4 E4 F4 E2 D2 | C8 z4 F4 | G4 A4 B4 A4- | A2 G2 F4 E4 D4 | %119
w: |||||
 E2 D2 ^C2 =B,2 C8 | D16 |] %121
w: ||
V:2
 d16 | d12 c2 B2 | A4 B4 A8- | A4 E4 F4 G4 | B6 A2 F4 G4 | A16 | E16 | A16 | A8 A4 A4 | B8 A8- | %10
w: I|love un- *|lov'd; * *||||||such is mine|ad- ven-|
 A4 F4 G8 | A4 F8 D4 | A4 B4 c8 | d8 c8 | B16 | A4 d4 c4 c4 | d4 B4 A8 | z4 A4 G4 G4 | A4 F4 E8 | %19
w: |ture, * *||||||||
 D4 A4 c4 d4 | B16 | A8 d8 | c12 B4 | A8 G8 | A8 F8 | E8 A6 G2 | F2 E2 D4 A6 B2 | %27
w: ||* And|can- not|cease till|I sore|smart: * *||
 c2 d2 e4 f4 e2 d2 | c8 d8- | d8 z8 | c8 f8- | f8 e8- | e8 d8- | d8 z8 | c8 A8 | F8 B4 B4 | %36
w: |||But love|* my|* foe,||that fer-|vent- cre- a-|
 A12 G4 | F4 D4 G4 F4 | E8 z4 D4 | A8 B8 | c8 d8 | e16 | ^c8 c8- | c4 B2 A2 ^c4 d4 | ^c8 c8- | %45
w: ture *|||||||||
 c16 || A8 E8 | G16 | A12 F4 | E16 | z8 c8 | d8 f8 | e4 d4 d8- | d4 =B4 ^c8 | d12 c2 B2 | A8 G8 | %56
w: |Whose un-|kind-|ness *||hath|kill'd my|heart; * *||||
 F4 G2 A2 B8 | A16 | G8 d8- | d4 c4 d8 | c4 B4 B8- | B4 G4 A8 | G4 B4 A4 G4 | F4 A4 G4 d4 | %64
w: ||||||||
 c4 c8 B2 A2 | G8 z4 d4 | f6 e2 d4 c4 | B4 A4 d6 cd | c2 B2 A2 G2 A4 B4 | A4 d6 c2 B4- | %70
w: ||||||
 B2 AB A2 G2 ^F2 E2 F4 | G4 d6 cd c2 B2 | A2 G2 A4 G4 B4- | B2 AB A2 G2 ^F2 E2 F4 | %74
w: ||||
 G4 d6 cd c2 B2 | A2 G2 A4 G4 A4 | G4 c6 B2 A2 G2 | A4 G2 A2 B2 A2 G2 F2 | E4 D4 E8 | D16 || D16 | %81
w: ||||||From|
 A16 | ^c16 | z8 d8 | c8 c8 | A16 | G16 | F8 F8 | c12 c4 | c8 c8 | d8 A8- | A4 A4 G4 F4 | A8 E8 | %93
w: her|love|no-|thing can|me||rent, But|live in|pain while|I en-|||
 D4 E4 F4 G4 | A4 B4 c4 d4 | e6 d2 c2 B2 c4 | d12 c2 B2 | A4 B4 c4 G4 | A4 c4 B4 A4 | c8 c8 | A16 | %101
w: dure * * *||||||* And|love|
 d16 | =B12 G4 | c8 z4 C4 | F8 G4 G4 | A12 G4 | F4 E4 D8 | z8 d8 | c4 d4 e8 | d4 e4 f6 e2 | %110
w: un-|lov- *|ed, such|is mine ad-|ven- *|* * ture.||||
 d4 c4 f4 e4 | d8 z4 A4 | F4 G4 A8 | z8 z4 d4 | B4 c4 d8- | d4 c2 B2 A8- | A4 G2 F2 E4 D4 | %117
w: |||||||
 z4 F4 G4 A4 | B4 A6 G2 F4 | E16 | D16 |] %121
w: ||||
V:3
 z16 | D,16 | D,4 B,,4 F,8- | F,4 C,4 D,4 C,4 | B,,16 | A,,16- | A,,16 | F,16 | D,8 C,8 | %9
w: |I|love un- lov'd;||||||such is|
 B,,8 F,8 | B,,16 | D,12 C,2 B,,2 | A,,8 A,8 | D,4 E,4 F,8 | G,16 | D,8 z8 | z4 D,8 C,4 | %17
w: mine ad-|ven-|ture, * *||||||
 A,,4 C,4 B,,8 | A,,4 D,8 C,4 | F,16 | D,4 _E,6 D,2 B,,4 | D,8 D,8 | A,12 D,4 | F,8 C,4 E,4 | %24
w: ||||* And|can- not|cease till I|
 D,4 A,,4 B,,4 D,4 | A,,16 | B,,8 A,,4 C,4 | F,4 E,4 D,8 | A,6 E,2 G,4 F,4- | F,4 E,2 D,2 F,4 E,4 | %30
w: sore * * *|smart:|||||
 C,4 A,4 F,8 | D,8 A,8- | A,8 z8 | D,8 F,8 | C,8 D,8- | D,4 D,4 D,8- | D,4 C,2 B,,2 A,,8 | %37
w: * But love|my foe,||my foe,|that fer-|* vent- cre-|* a- * ture|
 B,,8 C,4 D,4 | A,,8 B,,8 | A,,8 z4 D,4 | F,4 A,4 G,4 F,4 | E,8 A,8- | A,4 G,2 F,2 E,4 D,2 C,2 | %43
w: ||||||
 E,4 F,4 E,4 D,4 | E,4 A,,4 A,,8- | A,,16 || A,,8 A,,8 | B,,16 | A,,16- | A,,16 | A,12 G,4 | %51
w: |||Whose un-|kind-|ness|||
 F,4 E,4 D,8 | C,8 D,8 | A,,8 A,6 G,2 | F,2 E,2 D,4 F,4 G,4 | D,8 _E,4 G,4 | D,8 B,,8 | D,16 | %58
w: |||||||
 z8 D,8 | F,8 B,8 | A,4 G,4 G,8- | G,4 _E,4 F,8 | G,8 D,4 B,,4 | D,8 z4 D,4 | F,4 G,4 A,4 F,4 | %65
w: hath|kill'd my|heart; * *|||||
 B,8 A,4 D,4 | D,8 z4 F,4 | G,4 D,4 D,8 | z4 D,4- D,4 B,,4 | D,6 _E,2 F,4 G,4 | D,8 z8 | %71
w: ||||||
 z4 B,6 A,B, A,2 G,2 | ^F,2 E,2 F,4 G,8- | G,8 z4 D,4 | E,4 G,12 | D,8 B,,4 D,4 | %76
w: |||||
 E,4 F,6 B,,2 D,4- | D,2 A,,2 C,4 B,,4 C,2 D,2 | A,,4 B,,4 A,,8 | D,16 || z16 | D,16 | A,16 | %83
w: |||||From|her|
 D,8 D,8 | E,8 F,8- | F,8 F,8 | C,16 | F,8 A,8 | A,12 G,4 | F,8 E,8 | D,12 C,2 B,,2 | A,,8 B,,8 | %92
w: love no-|thing can|* me||rent, But|live in|pain while|I en- *||
 A,,8 z4 C,4 | F,4 G,4 A,6 G,2 | F,2 E,2 D,4 E,4 F,4 | E,8 z4 A,,4 | B,,6 C,2 D,4 E,4 | %97
w: dure *|||||
 F,4 G,4 C,8 | F,4 E,4 D,8 | z8 C,8 | F,16 | D,16 | G,16 | C,12 A,,4 | B,,4 D,4 C,4 B,,4 | %105
w: ||And|love|un-|lov-|ed, *||
 A,,8 C,8 | z8 z4 D,4 | F,8 G,4 G,4 | A,12 G,4 | F,4 E,4 D,4 C,4 | D,4 E,4 D,4 A,4 | %111
w: |such|is mine ad-|ven- *||ture. * * *|
 F,4 G,4 A,4 A,,4 | D,4 E,4 D,4 E,2 F,2 | G,4 F,2 E,2 D,4 B,,4 | D,8 z4 D,4 | B,,4 C,4 D,4 E,4 | %116
w: |||||
 F,4 E,2 D,2 C,4 A,4 | B,6 A,2 G,4 F,2 E,2 | D,4 A,,4 C,4 D,4 | A,,16 | [D,A,]16 |] %121
w: |||||

